;FLAVOR:UltiGCode
;TIME:13122
;MATERIAL:14787
;MATERIAL2:0
;NOZZLE_DIAMETER:0.4
;MINX:69.579
;MINY:86.075
;MINZ:0.27
;MAXX:153.501
;MAXY:136.925
;MAXZ:25.57
;Generated with Cura_SteamEngine 4.13.1
M82 ;absolute extrusion mode
G0 F3000 Y50 ;avoid prime blob
G92 E0
G92 E0
G10
;LAYER_COUNT:254
;LAYER:0
M107
G0 F4320 X80.139 Y88.382 Z0.27
;TYPE:SKIRT
G11
G1 F1800 X80.727 Y87.849 E0.075
G1 X81.366 Y87.379 E0.14996
G1 X82.05 Y86.976 E0.22498
G1 X82.77 Y86.643 E0.29995
G1 X83.52 Y86.385 E0.3749
G1 X84.293 Y86.203 E0.44994
G1 X85.079 Y86.1 E0.52485
G1 X85.707 Y86.075 E0.58425
G1 X87.837 Y86.075 E0.78553
G1 X88.629 Y86.115 E0.86047
G1 X89.414 Y86.234 E0.9355
G1 X90.182 Y86.432 E1.01045
G1 X90.927 Y86.707 E1.0855
G1 X91.64 Y87.054 E1.16043
G1 X92.315 Y87.472 E1.23546
G1 X92.944 Y87.955 E1.3104
G1 X93.378 Y88.354 E1.36611
G1 X93.588 Y88.573 E1.39479
G1 X94.314 Y88.34 E1.46684
G1 X95.09 Y88.175 E1.54181
G1 X95.878 Y88.089 E1.61672
G1 X96.341 Y88.075 E1.66049
G1 X123.74 Y88.075 E4.2497
G1 X124.532 Y88.115 E4.32464
G1 X125.317 Y88.234 E4.39967
G1 X126.085 Y88.432 E4.47462
G1 X126.476 Y88.576 E4.51399
G1 X126.637 Y88.409 E4.53591
G1 X127.223 Y87.874 E4.6109
G1 X127.86 Y87.401 E4.68588
G1 X128.542 Y86.994 E4.76093
G1 X129.26 Y86.658 E4.83584
G1 X130.009 Y86.395 E4.91086
G1 X130.781 Y86.21 E4.98588
G1 X131.567 Y86.103 E5.06084
G1 X132.233 Y86.075 E5.12383
G1 X134.919 Y86.075 E5.37766
G1 X135.711 Y86.115 E5.4526
G1 X136.496 Y86.234 E5.52763
G1 X137.264 Y86.432 E5.60258
G1 X138.009 Y86.707 E5.67762
G1 X138.722 Y87.054 E5.75256
G1 X139.397 Y87.472 E5.82759
G1 X140.026 Y87.955 E5.90253
G1 X140.46 Y88.354 E5.95824
G1 X140.674 Y88.578 E5.98752
G1 X140.992 Y88.457 E6.01967
G1 X141.758 Y88.251 E6.09463
G1 X142.542 Y88.124 E6.16968
G1 X143.415 Y88.075 E6.25231
G1 X145.522 Y88.075 E6.45142
G1 X146.314 Y88.115 E6.52636
G1 X147.099 Y88.234 E6.60139
G1 X147.867 Y88.432 E6.67634
G1 X148.612 Y88.707 E6.75139
G1 X149.325 Y89.054 E6.82632
G1 X150 Y89.472 E6.90135
G1 X150.629 Y89.955 E6.97629
G1 X151.09 Y90.382 E7.03567
G1 X151.193 Y90.485 E7.04944
G1 X151.726 Y91.073 E7.12444
G1 X152.196 Y91.712 E7.1994
G1 X152.599 Y92.396 E7.27442
G1 X152.932 Y93.116 E7.34938
G1 X153.19 Y93.866 E7.42434
G1 X153.372 Y94.639 E7.49938
G1 X153.475 Y95.425 E7.57429
G1 X153.5 Y96.053 E7.63369
G1 X153.501 Y126.947 E10.55317
G1 X153.461 Y127.739 E10.62811
G1 X153.342 Y128.524 E10.70314
G1 X153.144 Y129.292 E10.77809
G1 X152.87 Y130.037 E10.8531
G1 X152.522 Y130.75 E10.92808
G1 X152.104 Y131.425 E11.0031
G1 X151.621 Y132.054 E11.07805
G1 X151.194 Y132.515 E11.13743
G1 X151.091 Y132.618 E11.15119
G1 X150.503 Y133.151 E11.22619
G1 X149.864 Y133.621 E11.30115
G1 X149.18 Y134.024 E11.37617
G1 X148.46 Y134.357 E11.45114
G1 X147.71 Y134.615 E11.52609
G1 X146.937 Y134.797 E11.60114
G1 X146.151 Y134.9 E11.67605
G1 X145.523 Y134.925 E11.73544
G1 X143.295 Y134.925 E11.94599
G1 X142.503 Y134.885 E12.02093
G1 X141.718 Y134.766 E12.09596
G1 X140.95 Y134.568 E12.17091
G1 X140.55 Y134.42 E12.21121
G1 X140.36 Y134.618 E12.23714
G1 X139.772 Y135.151 E12.31214
G1 X139.133 Y135.621 E12.3871
G1 X138.449 Y136.024 E12.46212
G1 X137.729 Y136.357 E12.53709
G1 X136.979 Y136.615 E12.61204
G1 X136.206 Y136.797 E12.68709
G1 X135.42 Y136.9 E12.762
G1 X134.792 Y136.925 E12.82139
G1 X132.363 Y136.925 E13.05093
G1 X131.571 Y136.885 E13.12587
G1 X130.786 Y136.766 E13.2009
G1 X130.018 Y136.568 E13.27585
G1 X129.273 Y136.293 E13.3509
G1 X128.56 Y135.946 E13.42583
G1 X127.885 Y135.528 E13.50086
G1 X127.256 Y135.045 E13.5758
G1 X126.822 Y134.646 E13.63151
G1 X126.612 Y134.427 E13.66018
G1 X125.886 Y134.66 E13.73224
G1 X125.11 Y134.825 E13.80721
G1 X124.322 Y134.911 E13.88212
G1 X123.859 Y134.925 E13.92589
G1 X96.341 Y134.925 E16.52634
G1 X95.549 Y134.885 E16.60128
G1 X94.764 Y134.766 E16.67631
G1 X93.996 Y134.568 E16.75126
G1 X93.596 Y134.42 E16.79157
G1 X93.406 Y134.618 E16.8175
G1 X92.818 Y135.151 E16.89249
G1 X92.179 Y135.621 E16.96746
G1 X91.495 Y136.024 E17.04248
G1 X90.775 Y136.357 E17.11744
G1 X90.025 Y136.615 E17.19239
G1 X89.252 Y136.797 E17.26744
G1 X88.466 Y136.9 E17.34235
G1 X87.838 Y136.925 E17.40175
G1 X85.708 Y136.925 E17.60303
G1 X84.916 Y136.885 E17.67797
G1 X84.131 Y136.766 E17.753
G1 X83.363 Y136.568 E17.82795
G1 X82.618 Y136.293 E17.90299
G1 X81.905 Y135.946 E17.97793
G1 X81.23 Y135.528 E18.05296
G1 X80.601 Y135.045 E18.1279
G1 X80.167 Y134.646 E18.18361
G1 X80.064 Y134.544 E18.19731
G1 X79.529 Y133.958 E18.27229
G1 X79.056 Y133.321 E18.34727
G1 X78.649 Y132.639 E18.42232
G1 X78.313 Y131.921 E18.49724
G1 X78.05 Y131.172 E18.57225
G1 X77.865 Y130.4 E18.64727
G1 X77.758 Y129.614 E18.72224
G1 X77.73 Y128.949 E18.78513
G1 X77.73 Y126.963 E18.97281
G1 X77.585 Y126.973 E18.98655
G1 X76.792 Y126.946 E19.06153
G1 X76.006 Y126.839 E19.13649
G1 X75.234 Y126.654 E19.21151
G1 X74.485 Y126.393 E19.28647
G1 X73.766 Y126.057 E19.36146
G1 X73.085 Y125.65 E19.43644
G1 X72.448 Y125.177 E19.51141
G1 X71.862 Y124.642 E19.5864
G1 X71.332 Y124.051 E19.66141
G1 X70.865 Y123.41 E19.73636
G1 X70.464 Y122.725 E19.81137
G1 X70.135 Y122.003 E19.88635
G1 X69.88 Y121.252 E19.9613
G1 X69.702 Y120.479 E20.03626
G1 X69.602 Y119.691 E20.11132
G1 X69.58 Y119.099 E20.1673
G1 X69.579 Y103.281 E21.6621
G1 X69.619 Y102.489 E21.73704
G1 X69.738 Y101.705 E21.81198
G1 X69.936 Y100.936 E21.88702
G1 X70.21 Y100.192 E21.96195
G1 X70.558 Y99.478 E22.03701
G1 X70.976 Y98.804 E22.11195
G1 X71.459 Y98.174 E22.18697
G1 X72.003 Y97.597 E22.26191
G1 X72.603 Y97.077 E22.33694
G1 X73.252 Y96.621 E22.4119
G1 X73.943 Y96.232 E22.48683
G1 X74.671 Y95.914 E22.56191
G1 X75.426 Y95.672 E22.63683
G1 X76.202 Y95.506 E22.71182
G1 X76.991 Y95.42 E22.78682
G1 X77.729 Y95.413 E22.85657
G1 X77.729 Y94.054 E22.98499
G1 X77.769 Y93.262 E23.05993
G1 X77.888 Y92.477 E23.13496
G1 X78.086 Y91.709 E23.20991
G1 X78.36 Y90.964 E23.28492
G1 X78.708 Y90.251 E23.3599
G1 X79.125 Y89.576 E23.43488
G1 X79.609 Y88.947 E23.50988
G1 X80.036 Y88.485 E23.56933
G1 X80.139 Y88.382 E23.58309
G0 F4320 X80.386 Y88.629
G1 F1800 X80.962 Y88.11 E23.65636
G1 X81.588 Y87.652 E23.72966
G1 X82.259 Y87.262 E23.803
G1 X82.965 Y86.942 E23.87625
G1 X83.701 Y86.697 E23.94956
G1 X84.459 Y86.529 E24.02293
G1 X85.229 Y86.44 E24.09618
G1 X85.707 Y86.425 E24.14137
G1 X87.837 Y86.425 E24.34266
G1 X88.612 Y86.465 E24.41599
G1 X89.378 Y86.584 E24.48925
G1 X90.128 Y86.782 E24.56255
G1 X90.854 Y87.056 E24.63588
G1 X91.547 Y87.403 E24.70912
G1 X92.201 Y87.82 E24.78242
G1 X92.809 Y88.302 E24.85574
G1 X93.235 Y88.705 E24.91115
G1 X93.498 Y88.994 E24.94808
G1 X93.879 Y88.839 E24.98695
G1 X94.624 Y88.624 E25.06023
G1 X95.387 Y88.486 E25.1335
G1 X96.341 Y88.425 E25.22384
G1 X123.74 Y88.425 E27.81304
G1 X124.515 Y88.465 E27.88638
G1 X125.281 Y88.584 E27.95963
G1 X126.031 Y88.782 E28.03293
G1 X126.571 Y88.986 E28.08748
G1 X126.886 Y88.655 E28.13066
G1 X127.46 Y88.133 E28.20398
G1 X128.084 Y87.672 E28.2773
G1 X128.752 Y87.279 E28.35054
G1 X129.457 Y86.956 E28.42382
G1 X130.192 Y86.707 E28.49716
G1 X130.948 Y86.535 E28.57042
G1 X131.718 Y86.443 E28.64371
G1 X132.233 Y86.425 E28.6924
G1 X134.919 Y86.425 E28.94623
G1 X135.694 Y86.465 E29.01957
G1 X136.46 Y86.584 E29.09282
G1 X137.21 Y86.782 E29.16612
G1 X137.936 Y87.056 E29.23945
G1 X138.629 Y87.403 E29.31269
G1 X139.283 Y87.82 E29.38599
G1 X139.891 Y88.302 E29.45931
G1 X140.317 Y88.705 E29.51473
G1 X140.57 Y88.983 E29.55025
G1 X141.3 Y88.728 E29.62332
G1 X142.054 Y88.549 E29.69656
G1 X142.824 Y88.448 E29.76994
G1 X143.415 Y88.425 E29.82584
G1 X145.522 Y88.425 E30.02495
G1 X146.297 Y88.465 E30.09828
G1 X147.063 Y88.584 E30.17154
G1 X147.813 Y88.782 E30.24484
G1 X148.539 Y89.056 E30.31817
G1 X149.232 Y89.403 E30.39141
G1 X149.886 Y89.82 E30.46471
G1 X150.494 Y90.302 E30.53803
G1 X150.946 Y90.732 E30.59698
G1 X151.465 Y91.308 E30.67025
G1 X151.923 Y91.934 E30.74355
G1 X152.313 Y92.605 E30.81689
G1 X152.633 Y93.311 E30.89014
G1 X152.878 Y94.047 E30.96345
G1 X153.046 Y94.805 E31.03682
G1 X153.135 Y95.575 E31.11007
G1 X153.15 Y96.053 E31.15526
G1 X153.151 Y126.947 E34.07474
G1 X153.111 Y127.721 E34.14798
G1 X152.992 Y128.488 E34.22133
G1 X152.794 Y129.238 E34.29464
G1 X152.52 Y129.963 E34.36788
G1 X152.173 Y130.657 E34.4412
G1 X151.756 Y131.311 E34.5145
G1 X151.274 Y131.919 E34.58782
G1 X150.844 Y132.371 E34.64678
G1 X150.268 Y132.89 E34.72004
G1 X149.642 Y133.348 E34.79334
G1 X148.971 Y133.738 E34.86669
G1 X148.265 Y134.058 E34.93994
G1 X147.529 Y134.303 E35.01324
G1 X146.771 Y134.471 E35.08661
G1 X146.001 Y134.56 E35.15986
G1 X145.523 Y134.575 E35.20505
G1 X143.295 Y134.575 E35.4156
G1 X142.52 Y134.535 E35.48893
G1 X141.754 Y134.416 E35.56219
G1 X141.004 Y134.218 E35.63549
G1 X140.457 Y134.012 E35.69073
G1 X140.113 Y134.371 E35.73771
G1 X139.537 Y134.89 E35.81098
G1 X138.911 Y135.348 E35.88428
G1 X138.24 Y135.738 E35.95762
G1 X137.534 Y136.058 E36.03087
G1 X136.798 Y136.303 E36.10418
G1 X136.04 Y136.471 E36.17755
G1 X135.27 Y136.56 E36.2508
G1 X134.792 Y136.575 E36.29599
G1 X132.363 Y136.575 E36.52553
G1 X131.588 Y136.535 E36.59887
G1 X130.822 Y136.416 E36.67212
G1 X130.072 Y136.218 E36.74542
G1 X129.346 Y135.944 E36.81875
G1 X128.653 Y135.597 E36.89199
G1 X127.999 Y135.18 E36.96529
G1 X127.391 Y134.698 E37.03861
G1 X126.965 Y134.295 E37.09403
G1 X126.702 Y134.006 E37.13095
G1 X126.321 Y134.161 E37.16982
G1 X125.576 Y134.376 E37.2431
G1 X124.813 Y134.514 E37.31637
G1 X123.859 Y134.575 E37.40671
G1 X96.341 Y134.575 E40.00716
G1 X95.566 Y134.535 E40.0805
G1 X94.8 Y134.416 E40.15375
G1 X94.05 Y134.218 E40.22706
G1 X93.503 Y134.012 E40.28229
G1 X93.159 Y134.371 E40.32928
G1 X92.583 Y134.89 E40.40255
G1 X91.957 Y135.348 E40.47585
G1 X91.286 Y135.738 E40.54919
G1 X90.58 Y136.058 E40.62244
G1 X89.844 Y136.303 E40.69574
G1 X89.086 Y136.471 E40.76911
G1 X88.316 Y136.56 E40.84236
G1 X87.838 Y136.575 E40.88755
G1 X85.708 Y136.575 E41.08884
G1 X84.933 Y136.535 E41.16217
G1 X84.167 Y136.416 E41.23543
G1 X83.417 Y136.218 E41.30873
G1 X82.691 Y135.944 E41.38206
G1 X81.998 Y135.597 E41.4553
G1 X81.344 Y135.18 E41.5286
G1 X80.736 Y134.698 E41.60192
G1 X80.31 Y134.295 E41.65734
G1 X79.788 Y133.721 E41.73066
G1 X79.327 Y133.097 E41.80397
G1 X78.934 Y132.429 E41.87721
G1 X78.611 Y131.724 E41.95049
G1 X78.362 Y130.989 E42.02383
G1 X78.19 Y130.233 E42.0971
G1 X78.098 Y129.463 E42.17038
G1 X78.08 Y128.949 E42.21898
G1 X78.08 Y126.596 E42.44134
G1 X77.352 Y126.623 E42.51018
G1 X76.578 Y126.573 E42.58348
G1 X75.814 Y126.443 E42.65671
G1 X75.067 Y126.235 E42.72999
G1 X74.345 Y125.951 E42.80331
G1 X73.656 Y125.595 E42.8766
G1 X73.007 Y125.169 E42.94996
G1 X72.406 Y124.679 E43.02324
G1 X71.859 Y124.13 E43.09647
G1 X71.371 Y123.527 E43.16978
G1 X70.947 Y122.877 E43.24312
G1 X70.593 Y122.187 E43.3164
G1 X70.311 Y121.464 E43.38974
G1 X70.106 Y120.716 E43.46303
G1 X69.978 Y119.951 E43.53633
G1 X69.93 Y119.099 E43.61697
G1 X69.929 Y103.281 E45.11177
G1 X69.969 Y102.507 E45.18501
G1 X70.088 Y101.74 E45.25836
G1 X70.286 Y100.99 E45.33167
G1 X70.56 Y100.265 E45.40491
G1 X70.907 Y99.571 E45.47823
G1 X71.324 Y98.917 E45.55153
G1 X71.805 Y98.309 E45.62479
G1 X72.347 Y97.754 E45.6981
G1 X72.943 Y97.258 E45.77137
G1 X73.587 Y96.825 E45.84471
G1 X74.272 Y96.462 E45.91797
G1 X74.991 Y96.17 E45.9913
G1 X75.736 Y95.955 E46.06458
G1 X76.499 Y95.817 E46.13785
G1 X77.273 Y95.758 E46.21121
G1 X78.048 Y95.779 E46.28447
G1 X78.079 Y95.783 E46.28743
G1 X78.079 Y94.054 E46.45082
G1 X78.119 Y93.279 E46.52415
G1 X78.238 Y92.513 E46.59741
G1 X78.436 Y91.763 E46.67071
G1 X78.71 Y91.037 E46.74404
G1 X79.057 Y90.344 E46.81728
G1 X79.473 Y89.689 E46.89061
G1 X79.955 Y89.082 E46.96385
G1 X80.386 Y88.629 E47.02294
G0 F4320 X80.634 Y88.877
G1 F1800 X81.197 Y88.37 E47.09454
G1 X81.81 Y87.926 E47.16607
G1 X82.467 Y87.548 E47.2377
G1 X83.159 Y87.242 E47.3092
G1 X83.881 Y87.011 E47.38083
G1 X84.622 Y86.857 E47.45235
G1 X85.707 Y86.775 E47.55518
G1 X87.837 Y86.775 E47.75646
G1 X88.593 Y86.815 E47.82801
G1 X89.341 Y86.934 E47.89958
G1 X90.072 Y87.132 E47.97115
G1 X90.779 Y87.406 E48.0428
G1 X91.452 Y87.752 E48.11432
G1 X92.085 Y88.168 E48.1859
G1 X92.886 Y88.852 E48.28543
G1 X92.989 Y88.954 E48.29913
G1 X93.403 Y89.409 E48.35726
G1 X93.487 Y89.367 E48.36614
G1 X94.196 Y89.103 E48.43763
G1 X94.93 Y88.915 E48.50924
G1 X95.679 Y88.806 E48.58076
G1 X96.341 Y88.775 E48.64339
G1 X123.74 Y88.775 E51.23259
G1 X124.496 Y88.815 E51.30414
G1 X125.244 Y88.934 E51.37571
G1 X125.975 Y89.132 E51.44728
G1 X126.687 Y89.409 E51.51948
G1 X127.033 Y89.004 E51.56981
G1 X127.135 Y88.901 E51.58351
G1 X127.695 Y88.392 E51.65503
G1 X128.307 Y87.945 E51.72664
G1 X128.961 Y87.564 E51.79817
G1 X129.653 Y87.255 E51.86979
G1 X130.373 Y87.02 E51.94136
G1 X131.114 Y86.863 E52.01294
G1 X132.233 Y86.775 E52.11901
G1 X134.919 Y86.775 E52.37284
G1 X135.675 Y86.815 E52.44438
G1 X136.423 Y86.934 E52.51595
G1 X137.154 Y87.132 E52.58752
G1 X137.861 Y87.406 E52.65918
G1 X138.534 Y87.752 E52.73069
G1 X139.167 Y88.168 E52.80227
G1 X139.968 Y88.852 E52.90181
G1 X140.071 Y88.954 E52.9155
G1 X140.486 Y89.411 E52.97384
G1 X140.883 Y89.237 E53.0148
G1 X141.605 Y89.007 E53.08641
G1 X142.346 Y88.855 E53.15789
G1 X143.415 Y88.775 E53.25919
G1 X145.522 Y88.775 E53.45831
G1 X146.278 Y88.815 E53.52985
G1 X147.026 Y88.934 E53.60142
G1 X147.757 Y89.132 E53.67299
G1 X148.464 Y89.406 E53.74465
G1 X149.137 Y89.752 E53.81616
G1 X149.77 Y90.168 E53.88774
G1 X150.595 Y90.877 E53.99053
G1 X150.698 Y90.98 E54.0043
G1 X151.205 Y91.543 E54.0759
G1 X151.649 Y92.156 E54.14742
G1 X152.027 Y92.813 E54.21905
G1 X152.333 Y93.505 E54.29055
G1 X152.564 Y94.227 E54.36219
G1 X152.718 Y94.968 E54.43371
G1 X152.8 Y96.053 E54.53654
G1 X152.801 Y126.947 E57.45602
G1 X152.761 Y127.703 E57.52756
G1 X152.642 Y128.451 E57.59914
G1 X152.444 Y129.182 E57.6707
G1 X152.17 Y129.888 E57.74227
G1 X151.824 Y130.562 E57.81387
G1 X151.408 Y131.195 E57.88545
G1 X150.699 Y132.02 E57.98824
G1 X150.596 Y132.123 E58.00201
G1 X150.033 Y132.63 E58.0736
G1 X149.42 Y133.074 E58.14513
G1 X148.763 Y133.452 E58.21676
G1 X148.071 Y133.758 E58.28826
G1 X147.349 Y133.989 E58.3599
G1 X146.608 Y134.143 E58.43142
G1 X145.523 Y134.225 E58.53425
G1 X143.295 Y134.225 E58.74479
G1 X142.539 Y134.185 E58.81633
G1 X141.791 Y134.066 E58.88791
G1 X141.06 Y133.868 E58.95948
G1 X140.353 Y133.594 E59.03113
G1 X140.34 Y133.587 E59.03253
G1 X139.968 Y134.02 E59.08647
G1 X139.865 Y134.123 E59.10024
G1 X139.302 Y134.63 E59.17183
G1 X138.689 Y135.074 E59.24336
G1 X138.032 Y135.452 E59.31499
G1 X137.34 Y135.758 E59.38649
G1 X136.618 Y135.989 E59.45813
G1 X135.877 Y136.143 E59.52965
G1 X134.792 Y136.225 E59.63247
G1 X132.363 Y136.225 E59.86201
G1 X131.607 Y136.185 E59.93356
G1 X130.859 Y136.066 E60.00513
G1 X130.128 Y135.868 E60.0767
G1 X129.421 Y135.594 E60.14835
G1 X128.748 Y135.248 E60.21986
G1 X128.115 Y134.832 E60.29144
G1 X127.314 Y134.148 E60.39098
G1 X127.211 Y134.046 E60.40468
G1 X126.797 Y133.591 E60.46281
G1 X126.713 Y133.633 E60.47169
G1 X126.004 Y133.897 E60.54318
G1 X125.27 Y134.085 E60.61478
G1 X124.521 Y134.194 E60.68631
G1 X123.859 Y134.225 E60.74894
G1 X96.341 Y134.225 E63.34939
G1 X95.585 Y134.185 E63.42093
G1 X94.837 Y134.066 E63.49251
G1 X94.106 Y133.868 E63.56408
G1 X93.399 Y133.594 E63.63573
G1 X93.386 Y133.587 E63.63712
G1 X93.014 Y134.02 E63.69107
G1 X92.911 Y134.123 E63.70483
G1 X92.348 Y134.63 E63.77643
G1 X91.735 Y135.074 E63.84796
G1 X91.078 Y135.452 E63.91959
G1 X90.386 Y135.758 E63.99109
G1 X89.664 Y135.989 E64.06273
G1 X88.923 Y136.143 E64.13425
G1 X87.838 Y136.225 E64.23707
G1 X85.708 Y136.225 E64.43836
G1 X84.952 Y136.185 E64.5099
G1 X84.204 Y136.066 E64.58147
G1 X83.473 Y135.868 E64.65304
G1 X82.766 Y135.594 E64.7247
G1 X82.093 Y135.248 E64.79621
G1 X81.46 Y134.832 E64.86779
G1 X80.659 Y134.148 E64.96733
G1 X80.556 Y134.046 E64.98102
G1 X80.047 Y133.486 E65.05254
G1 X79.6 Y132.874 E65.12415
G1 X79.219 Y132.22 E65.19568
G1 X78.91 Y131.528 E65.2673
G1 X78.675 Y130.808 E65.33887
G1 X78.518 Y130.067 E65.41045
G1 X78.43 Y128.949 E65.51643
G1 X78.43 Y126.199 E65.7763
G1 X77.883 Y126.261 E65.82832
G1 X77.125 Y126.266 E65.89996
G1 X76.372 Y126.192 E65.97146
G1 X75.63 Y126.038 E66.04307
